Yaru++/apps/16/visual-studio-code.svg

<svg height="16" width="16" xmlns="http://www.w3.org/2000/svg">
  <path d="m11.748047.5v12.882812l-11.248047-1.669921 11.248047 3.787109 3.75-1.560547v-11.6464842l.001953-.0019532-.001953-.0019531v-.2285156zm-3.935547 2.1953125-3.4453125 3.40625-2.0742187-1.5625-.8554688.2851563 2.1113281 2.0859374-2.1113281 2.0859376.8554688.2851562 2.0742187-1.5625 3.4453125 3.40625 2.0625-.876953v-6.6757814zm0 2.4296875v3.5703125l-2.3710938-1.7851563z" fill="#808080"/>
</svg>

<svg xmlns="http://www.w3.org/2000/svg" width="16" height="16" version="1.1">
 <path style="fill:#808080" d="M 11.748047 0.5 L 11.748047 13.382812 L 0.5 11.712891 L 11.748047 15.5 L 15.498047 13.939453 L 15.498047 2.2929688 L 15.5 2.2910156 L 15.498047 2.2890625 L 15.498047 2.0605469 L 11.748047 0.5 z M 7.8125 2.6953125 L 4.3671875 6.1015625 L 2.2929688 4.5390625 L 1.4375 4.8242188 L 3.5488281 6.9101562 L 1.4375 8.9960938 L 2.2929688 9.28125 L 4.3671875 7.71875 L 7.8125 11.125 L 9.875 10.248047 L 9.875 3.5722656 L 7.8125 2.6953125 z M 7.8125 5.125 L 7.8125 8.6953125 L 5.4414062 6.9101562 L 7.8125 5.125 z"/>
</svg>
